symbols/web/add_comment/materialsymbolssharp/add_comment_wght600gradN25fill1_20px.svg

<svg xmlns="http://www.w3.org/2000/svg" height="20" width="20"><path d="M9.083 11.667h1.834V9.25h2.416V7.396h-2.416V4.979H9.083v2.417H6.667V9.25h2.416Zm-7.604 6.75V1.458h17.042v13.75H4.688Z"/></svg>

<svg xmlns="http://www.w3.org/2000/svg" height="20" width="20"><path d="M9.083 11.667H10.917V9.25H13.333V7.396H10.917V4.979H9.083V7.396H6.667V9.25H9.083ZM1.479 18.417V1.458H18.521V15.208H4.688Z"/></svg>
